icons/colapse.svg

<svg xmlns="http://www.w3.org/2000/svg" width="24" height="24" fill="none"><g clip-path="url(#a)"><g><path fill="#121212" d="M3 18.1977H21V20.1977H3V18.1977ZM13 7.63025L12 6.56573L11 7.63025L4.929 13.7022L3.515 12.2882L12 3.80225L20.485 12.2872L19.071 13.7012L13 7.63225V7.63025Z"/></g></g><defs><clipPath id="a"><rect width="24" height="24" fill="white"/></clipPath></defs></svg>

<svg width="24" height="24" fill="none" xmlns="http://www.w3.org/2000/svg"><g clip-path="url(#a)"><path d="M3 18.198h18v2H3v-2ZM13 7.63l-1-1.064-1 1.064-6.071 6.072-1.414-1.414L12 3.802l8.485 8.485-1.414 1.414L13 7.632V7.63Z" /></g><defs><clipPath id="a"><path fill="#fff" d="M0 0h24v24H0z"/></clipPath></defs></svg>
